X: 1
T: Limbrick's Lamentation
B: A COLECTION of the most Celebrated Irish Tunes2 p.5b
N: The 2nd part has an open repeat but no close repeat.
M: 3/4
L: 1/8
K: G
GA |\
B2 B2 (Bc) | B3 A G2 | g2 A2 (AB) | TA4 GA |\
B2 (cB) (AG) | E2 D2 (BA) | E2 G2 (GA) | G4 :|
|: G2 |\
B2 d2 d2 | d>e d>B A>B | G2 g2 g2 | Tg4 ed |\
B2 d2 d2 | d>e d>B A>B | G2 g2 g2 | Te4 de |
=f>e f>g f>g | e>d e>g e>g | d2 (ed) (cB) | A4 GA |\
B2 (dB) (AG) | E2 D2 BA | E2 G2 GA | HG4 :|
